assets/mail.svg

<svg fill="none" height="24" viewBox="0 0 24 24" width="24" xmlns="http://www.w3.org/2000/svg"><path d="m19 4h-14c-.79565 0-1.55871.31607-2.12132.87868s-.87868 1.32567-.87868 2.12132v10c0 .7956.31607 1.5587.87868 2.1213s1.32567.8787 2.12132.8787h14c.7956 0 1.5587-.3161 2.1213-.8787s.8787-1.3257.8787-2.1213v-10c0-.79565-.3161-1.55871-.8787-2.12132s-1.3257-.87868-2.1213-.87868zm-.41 2-5.88 5.88c-.093.0937-.2036.1681-.3254.2189-.1219.0508-.2526.0769-.3846.0769s-.2627-.0261-.3846-.0769c-.1218-.0508-.2324-.1252-.3254-.2189l-5.88-5.88zm1.41 11c0 .2652-.1054.5196-.2929.7071s-.4419.2929-.7071.2929h-14c-.26522 0-.51957-.1054-.70711-.2929-.18753-.1875-.29289-.4419-.29289-.7071v-9.59l5.88 5.88c.5625.5618 1.325.8774 2.12.8774s1.5575-.3156 2.12-.8774l5.88-5.88z" fill="#fff"/></svg>

<svg width="24" height="24" viewBox="0 0 24 24" fill="none" xmlns="http://www.w3.org/2000/svg">
<path d="M19 4H5C4.20435 4 3.44129 4.31607 2.87868 4.87868C2.31607 5.44129 2 6.20435 2 7V17C2 17.7956 2.31607 18.5587 2.87868 19.1213C3.44129 19.6839 4.20435 20 5 20H19C19.7956 20 20.5587 19.6839 21.1213 19.1213C21.6839 18.5587 22 17.7956 22 17V7C22 6.20435 21.6839 5.44129 21.1213 4.87868C20.5587 4.31607 19.7956 4 19 4ZM18.59 6L12.71 11.88C12.617 11.9737 12.5064 12.0481 12.3846 12.0989C12.2627 12.1497 12.132 12.1758 12 12.1758C11.868 12.1758 11.7373 12.1497 11.6154 12.0989C11.4936 12.0481 11.383 11.9737 11.29 11.88L5.41 6H18.59ZM20 17C20 17.2652 19.8946 17.5196 19.7071 17.7071C19.5196 17.8946 19.2652 18 19 18H5C4.73478 18 4.48043 17.8946 4.29289 17.7071C4.10536 17.5196 4 17.2652 4 17V7.41L9.88 13.29C10.4425 13.8518 11.205 14.1674 12 14.1674C12.795 14.1674 13.5575 13.8518 14.12 13.29L20 7.41V17Z" fill="white"/>
</svg>
